X:118
T:Jolly Night, The
M:6/8
L:1/8
B:Thompson's Compleat Collection of 200 Favourite Country Dances, vol. 2 (London, 1765)
Z:Transcribed and edited by Flynn Titford-Mock, 2007
Z:abc's:AK/Fiddler's Companion
K:G
gdB GGG | AAA cBA | gdB GGG | cBA "tr"B3 | gdB GGG | AAA cBA | Bdg fge | dAF D3 :|
|: dAF DDD | GFE FFF | FGA ABc | BdB A2d | gdB GGG | AAA cBA | Bdg edc | BcA G3 :|

